!!!COM: maroon-5
!!!OTL: never-gonna-leave-this-bed
!!!RNB: hooktheoryid: nRPxeOKAmb_
**kern	**text
*clefG2	*
*k[f#c#g#d#a#]	*
*M4/4	*
=1	=1
4.bb	B
4.ff#	.
[4ee	.
=2	=2
4ee]	B
8ee	.
8dd#	.
8ee	.
8ff#	.
8ee	.
8dd#	.
=3	=3
4.bb	B
4.ff#	.
[4ee	.
=4	=4
4ee]	B
8ee	.
8dd#	.
8ee	.
8ff#	.
8ee	.
8dd#	.
=5	=5
4.bb	G#m
4.ff#	.
[4ee	E
=6	=6
4.ee]	.
8ee	.
8dd#	.
8cc#	.
8b	.
8cc#	.
=7	=7
4.ee	B
4.dd#	.
[4cc#	F#
=8	=8
4.cc#]	.
4.dd#	.
8r	.
8ff#	.
=9	=9
4.bb	B
4.ff#	.
[4ee	.
=10	=10
8ee]	B
8ee	.
8ee	.
8dd#	.
8ee	.
8ff#	.
8ee	.
8dd#	.
=11	=11
4.bb	F#/A#
4.ff#	.
[4ee	.
=12	=12
8ee]	F#/A#
8dd#	.
8ee	.
8dd#	.
8ee	.
8ff#	.
8ee	.
8dd#	.
=13	=13
4.bb	G#m
4.ff#	.
[4ee	E
=14	=14
4.ee]	.
8ee	.
8dd#	.
8cc#	.
8b	.
8cc#	.
=15	=15
4.ee	B
4.ff#	.
[4ff#	F#
=16	=16
2.ff#]	.
4r	.
*-	*-